X: 9666
T: Deaconess, The
R: waltz
M: 3/4
K: Dmajor
A>G|F3 A d2|f>e d>c B>A|G3 B e2|g>f e>d c>B|
A>f A>f A>f|G>e G>e G>e|d>c d>e f>d|A4 A>G|
F3 A d2|f>e d>c B>A|G3 B e2|g>f e>d c>B|
A>c e2 a2|g>e c2 A2|e>f g>e c>A|d4||
c>d|e>c A>G F>G|A>c e>g f>e|f2 a z2 F|A4 A>B|
=c>e c>A F>A|D>F A>=c e>d|B3 G B>e|d4 c>d|
e>c A>c e2|f>d A>d f2|g>e c>e g>b|a>f d>B A>G|
F>D d>A F>A|G>B e>g c>A|d3 d d2|d2 z2||

